X:1
T:Can Others See Jesus in You?
T:Can Others See Jesus in You?
T:Leonard Charles Voke
T:Leonard Charles Voke, 1921
T:Public Domain Courtesy of the Cyber Hymnal™
T:Public Domain Courtesy of the Cyber Hymnal™
C:Leonard Charles Voke
Z:Public Domain
Z:Courtesy of the Cyber Hymnal™
%%score ( 1 2 ) ( 3 4 )
L:1/8
Q:1/4=135
M:6/4
K:Eb
V:1 treble 
V:2 treble 
V:3 bass 
V:4 bass 
V:1
 B,2 | [EG]2 [EG]2 [EG]2 [EB]2 [EA]2 [EG]2 | [DF]2 [DG]2 [DF]2 E4 [_DE]2 | %3
w: 1.~Christ|Je- sus hath tri- umphed o’er|Sa- tan and death, And|
w: 2.~O|will you give heed to the|mes- sage to- night, And|
w: 3.~The|har- vest is plen- teous, the|fields they are white, A-|
 [CA]2 [CA]2 [CA]2 [EA]2 E2 [DF]2 | [EG]6- [EG]4 [EB]2 | [DB]2 [DF]2 [EG]2 [EA]2 [DG]2 [DF]2 | %6
w: now, praise His name, I am|free. * Al-|though He has gone to the|
w: to your com- mis- sion be|true? * Are|you rep- re- sent- ing the|
w: las! for the la- b’rers are|few. * ’Tis|far bet- ter not to pro-|
 [CE]2 [CE]2 [DF]2 [EG]4 | ([EB][EB]) | [E=A]2 [EG]2 [EF]2 [EA]2 [EB]2 [Ec]2 | [DB]6- [DB]4 || %10
w: Fa- ther’s right hand,|May *|o- thers see Je- sus in|me. *|
w: Sav- ior a- right,|Can *|o- thers see Je- sus in|you? *|
w: fess Je- sus’ name,|If~the *|world can- not see Him in|you. *|
"^Refrain" B,2 | [EB]2 [EA]2 [EG]2 [EB]2 A2 [EG]2 | [DF]6- [DF]4 B,2 | %13
w: May|o- thers see Je- sus in|me; * May|
w: Can|o- thers see Je- sus in|you? * Can|
w: Can|o- thers see Je- sus in|you? * Can|
 B,2 [B,D]2 [DF]2 [DA]2 [EB]3 [FA] | [EG]6- [EG]4 [AB]2 | [Ge]4 [Gc][GB] [EA]2 [=EA]2 [EG]2 | %16
w: o- thers see Je- sus in|me; * For|how will the lost know of|
w: o- thers see Je- sus in|you? * For|how will the lost know of|
w: o- thers see Je- sus in|you? * For|how will the lost know of|
 [Ec]6 [EF]4 [Ec][Ec] | [EB]2 [EB]2 [EA]2 [EG]2 [EG]3 [DF] | [B,E]6- [B,E]4 |] %19
w: Je- sus If they|can- not see Je- sus in|me? *|
w: Je- sus If they|can- not see Je- sus in|you? *|
w: Je- sus If they|fail to see Je- sus in|you? *|
V:2
 B,2 | x12 | x6 E4 x2 | x8 E2 x2 | x12 | x12 | x10 | x2 | x12 | x10 || B,2 | x8 (ED) x2 | x10 B,2 | %13
 B,2 x10 | x12 | x12 | x12 | x12 | x10 |] %19
V:3
 [E,G,]2 | [E,B,]2 [E,B,]2 [E,B,]2 [E,D]2 [E,C]2 [E,B,]2 | [B,,A,]2 [B,,B,]2 [B,,A,]2 [E,G,]4 E,2 | %3
 [A,,E,]2 [A,,E,]2 [A,,E,]2 [C,B,]2 [C,B,]2 [B,,B,]2 | [E,B,]6- [E,B,]4 [E,G,]2 | %5
 [B,,F,]2 [B,,B,]2 [B,,B,]2 [B,,C]2 [B,,B,]2 [=B,,A,]2 | [C,G,]2 [C,G,]2 [B,,B,]2 [E,B,]4 | %7
 ([E,G,][E,G,]) | F,2 [F,B,]2 [F,=A,]2 [F,C]2 [F,G,]2 [F,A,]2 | [B,,B,]6- [B,,B,]4 || [F,A,]2 | %11
 [E,G,]2 (C_C) [E,B,]2 [G,B,]2 (=CB,) [E,B,]2 | [B,,B,]6- [B,,B,]4 [B,,D,]2 | %13
 [B,,D,]2 [B,,F,]2 [B,,B,]2 [B,,B,]2 [B,,B,]3 [D,B,] | [E,B,]6- [E,B,]4 [F,D]2 | %15
 [E,_D]4 [E,D][E,D] [A,C]2 [C,C]2 [C,B,]2 | [F,=A,]6 [F,A,]4 [F,A,][F,A,] | %17
 [B,,G,]2 [B,,D]2 [B,,C]2 [B,,B,]2 [C,=A,]3 [B,,_A,] | [E,G,]6- [E,G,]4 |] %19
V:4
 x2 | x12 | x10 E,2 | x12 | x12 | x12 | x10 | x2 | F,2 x10 | x10 || x2 | x2 E,2 x3 F,2 x3 | x12 | %13
 x12 | x12 | x12 | x12 | x12 | x10 |] %19

